X: 1313
T: Brummy Hall's Schottische
B: australian traditional tunes wiki
M:4/4
L:1/8
R: Schottische
Q: 1/4=100
K:G
V:1 
||"G" (3(GBd) e>d G3 g  |  (3(gfd) B>d "D7" A3 G  |  F>G A>B c>A f2    |e>d A>c "G" B3 "D7"B |
"G" (3(GBd) e>d G3 g  |  (3(gfd) B>d "D7" A3 G  |  F>G A>B c>A f>e | d>d (3(def) "G" g3 "D7"d ||
||"G" (3(dBd) g>d (3(dBd) g2 | "C" f>e e>d "Am"e3 e | "D7" (3(ede) f2  (3(ede) f2 |  e>d G>A "G" B3 "D7"A |
"G" (3(GBd) e>d G3 g  |  (3(gfd) B>d "D7" A3 G  |  F>G A>B c>A f>e | d>d (3(def) "G" g3 ||
||e |"G" (3(dBd) g>e  (3(dBd) g2 | (3(BGB) A>B "D7"c3 D | D>F A>B c>d (3(fec) | e2 d2 "G"B2 G>A |
"G"(3(BGB) d>c  (3(dBd) g2 | (3(BGB) A>B "D7"c3 D | D>F A>B c>d (3(fec) | d>d ((3def)"G"g3 ||
% abcbook-tune_id 6342d53a1a5c13a3730eb7fe


% abcbook-boost 0
% abcbook-tablature 
% abcbook-transpose 
% abcbook-lastupdated 1665324358624
% abcbook-soundfonts 
% abcbook-repeats 1
% NFF Book 2013

